Public/images/icon_swiftregex.com.svg

<?xml version="1.0" encoding="UTF-8"?>
<svg width="1024px" height="1024px" viewBox="0 0 1024 1024" version="1.1" xmlns="http://www.w3.org/2000/svg" xmlns:xlink="http://www.w3.org/1999/xlink">
    <title>Swift_logo_black-Copy-2</title>
    <g id="Page-1" stroke="none" stroke-width="1" fill="none" fill-rule="evenodd">
        <g id="Swift_logo_black-Copy-2" fill-rule="nonzero">
            <rect id="Rectangle" fill="#0D6EFD" x="0" y="0" width="1024" height="1024"></rect>
            <path d="M673.064118,575.043556 C673.67809,572.949713 674.313053,570.866365 674.853558,568.720045 C697.953611,476.680167 641.573111,367.863308 546.166014,310.568627 C587.979102,367.249323 606.461243,435.900083 590.036171,495.939324 C588.572084,501.292006 586.808881,506.434778 584.862012,511.430613 C582.747218,510.045214 580.086672,508.465648 576.513037,506.49775 C576.513037,506.49775 481.604464,447.896387 378.740489,344.248537 C376.043209,341.524967 433.593929,426.506653 498.905889,495.509011 C468.139055,478.233494 382.38759,415.838024 328.095645,366.147301 C334.765378,377.272481 342.69979,387.983091 351.416098,398.294874 C396.75559,455.788967 455.875351,526.732985 526.707814,581.204387 C476.939325,611.662193 406.615881,614.028917 336.602048,581.235874 C319.28488,573.11764 303.001496,563.325382 287.93556,552.200202 C317.574154,599.608165 363.223258,640.508947 418.77988,664.391351 C485.031164,692.865516 550.915116,690.934352 599.985671,664.858398 L599.948938,664.916123 C600.116862,664.811169 600.300529,664.700966 600.4737,664.596012 C602.677704,663.415274 604.860716,662.197801 606.991252,660.922603 C630.694782,648.753125 676.947362,636.746327 701.800121,685.109376 C707.918854,697.01122 720.92772,633.933545 673.106099,575.090785 C673.090356,575.069795 673.079861,575.0593 673.064118,575.043556 Z" id="Path" fill="#FFFFFF"></path>
        </g>
        <g id="/" transform="translate(92.000000, 271.521484)" fill="#FFFFFF" fill-rule="nonzero">
            <polygon id="Path" points="163.740234 0 95.4492188 0 0 472.763672 68.5546875 472.763672"></polygon>
        </g>
        <g id="/-copy" transform="translate(789.000000, 271.521484)" fill="#FFFFFF" fill-rule="nonzero">
            <polygon id="Path" points="163.740234 0 95.4492188 0 0 472.763672 68.5546875 472.763672"></polygon>
        </g>
    </g>
</svg>

<svg xmlns="http://www.w3.org/2000/svg" width="1024" height="1024"><g fill="none" fill-rule="nonzero"><path fill="#0D6EFD" d="M0 0h1024v1024H0z"/><path fill="#FFF" d="M673.064 575.044c.614-2.094 1.25-4.178 1.79-6.324 23.1-92.04-33.28-200.857-128.688-258.151 41.813 56.68 60.295 125.331 43.87 185.37-1.464 5.353-3.227 10.496-5.174 15.492-2.115-1.386-4.775-2.965-8.349-4.933 0 0-94.909-58.602-197.773-162.25-2.697-2.723 54.854 82.259 120.166 151.261-30.767-17.276-116.518-79.671-170.81-129.362 6.67 11.125 14.604 21.836 23.32 32.148 45.34 57.494 104.46 128.438 175.292 182.91-49.769 30.457-120.092 32.824-190.106.03-17.317-8.117-33.6-17.91-48.666-29.035 29.638 47.408 75.287 88.309 130.844 112.191 66.251 28.475 132.135 26.543 181.206.467l-.037.058c.168-.105.352-.215.525-.32a157.652 157.652 0 0 0 6.517-3.673c23.704-12.17 69.956-24.177 94.81 24.186 6.118 11.902 19.127-51.175-28.695-110.018-.016-.021-.026-.032-.042-.047ZM255.74 271.521h-68.291L92 744.285h68.555zM952.74 271.521h-68.291L789 744.285h68.555z"/></g></svg>
